X: 1
T: "FIRE HIM OUT" -- REEL
B: Ryan's Mammoth Collection of Fiddle Tunes
R: REEL
M: 2/4
L: 1/16
Z: Contributed 20000424050835 by Ivan Bradley bradleyi:peoplepc.com
K: A
vE2 AB ">"c4 | {c}BABc BA F2 | E2 AB (c/e/ f3) |
fecA B4      |   E2 AB c4    | {c}BABc BAFE    |
agae fecA    |[1 {c}BABc A4 :|[2 {c}BABc A2   |]
|: uE2 |\
{B}AGAB AECE | "4"edBc BAFA  | EAc"4"e Ac"4"eA |
fecA B2E2    | {B}AGAB AECE  | "4"edBc BAFA    |
EAc"4"e Acef |[1 fedB A2    :|[2 fedB A4      |]

